X:1
T:Och blomstren de dofta
T:Och blomstren de dofta
T:August Söderman (1832-1876)
T:©PA Aglert Edition may be freely distributed, duplicated, performed and recorded
T:©PA Aglert Edition may be freely distributed, duplicated, performed and recorded
T:©PA Aglert Edition may be freely distributed, duplicated, performed and recorded
C:August Söderman (1832-1876)
Z:©PA Aglert
Z:Edition may be freely distributed, duplicated, performed and recorded
%%score [ 1 2 3 4 ]
L:1/8
Q:1/4=126
M:3/4
K:Db
V:1 treble nm="S"
V:2 treble nm="A"
V:3 treble-8 nm="T"
V:4 bass nm="B"
V:1
"^Allegro Moderato"!p! A2 | A3 B A2 | F2 A2!<(! d2!<)! | (e3!>(! f) e2!>)! | d2- d z!f! (Ad) | %5
w: Och|blom- stren de|dof- ta på|äng- * en|grön, * La *|
 !fermata!e6- | e2 z2!p! A2 | A3 B A2 | F2!<(! A2 d2!<)! | (e3 f)!>(! e2!>)! | d2- d z!pp! (FB) | %11
w: la!|* Och|so- len den|ly- ser så|klar * och|skön. * La *|
 !fermata!c6- | c2 z2 z2 |!p! z3/2!<(! (d/!<)! f2- f) z | z3/2!<(! (A/!<)! d2- d) z | %15
w: la!||La, * *|la, * *|
 z3/2!<(! (F/!<)! A2-!>(! AG)!>)! | F>E D>E F2 |!mf!!<(! z3/2 (d/!<)! a2- a) z | %18
w: la! * * *|Äng- en är så skön!|La, * *|
 z3/2!<(! (A/!<)! f2- f) z | z3/2!<(! (A/!<)! d2- dB) |!>(! c>B A>!>)!B A2 | %21
w: la, * *|la! * * *|So- len ly- ser skön!|
!ff! z3/2!<(! (d/!<)! !fermata!g2- g) z |!p! (B3"^rall." f) e2 | !fermata!d6 |] %24
w: La! * *|Ly- * ser|skön!|
V:2
!p! F2 | F3 G F2 | D2 F2!<(! A2!<)! | A4!>(! A2!>)! | F2- F z!f! A2 | !fermata!A6- | A2 z2!p! F2 | %7
w: Och|blom- stren de|dof- ta på|äng- en|grön, * La|la!|* Och|
 F3 G F2 | D2!<(! F2 A2!<)! | A4!>(! A2!>)! | F2- F z!pp! D2 | !fermata!C6- | C2 z2 z2 | %13
w: so- len den|ly- ser så|klar och|skön. * La|la!||
!p! z3/2!<(! (d/ A2-!<)! A) z | z3/2!<(! (A/!<)! F2- F) z | z3/2!<(! (D/!<)! F2-!>(! FE)!>)! | %16
w: La, * *|la, * *|la! * * *|
 D>A, F,>A, D2 |!mf!!<(! z3/2 (d/!<)! f2- f) z | z3/2!<(! (A/!<)! d2- d) z | %19
w: Äng- en är så skön!|La, * *|la, * *|
 z3/2!<(! (F/!<)! B2- BG) |!>(! A>G!>)! F>G F2 |!ff! z3/2!<(! (d/!<)! !fermata!__B2- B) z | %22
w: la! * * *|So- len ly- ser skön!|La! * *|
!p! D4 C2 | !fermata!D6 |] %24
w: Ly- ser|skön!|
V:3
!p! A2 | A3 B A2 | F2 A2!<(! d2!<)! | d4!>(! c2!>)! | d2- d z!f! (Ad) | !fermata!e6- | %6
w: Och|blom- stren de|dof- ta på|äng- en|grön, * La *|la!|
 e2 z2!p! A2 | A3 B A2 | F2!<(! A2 d2!<)! | d4!>(! c2!>)! | d2- d z!pp! =G2 | !fermata!A6- | %12
w: * Och|so- len den|ly- ser så|klar och|skön. * La|la!|
 A2 z2 z2 |!p!{/=G} A6 |{/=G} A6 |{/=G} A6 | A>A A>A A2 |!mf!{/=G} A6 |{/=G} A6 | %19
w: ||||Äng- en är så skön!|||
 z3/2!<(! (d/!<)! _g2- gd) |!>(! d>d!>)! d>d d2 |!ff! z3/2!<(! (d/!<)! !fermata![__Bg]2- [Bg]) z | %22
w: la! * * *|So- len ly- ser skön!|La! * *|
!p! [GA]4 [GA]2 | !fermata![FA]6 |] %24
w: Ly- ser|skön!|
V:4
!p! D,2 | D,3 D, D,2 | D,2 D,2!<(! F,2!<)! | A,4!>(! A,2!>)! | D,2- D, z!f! (A,F,) | %5
w: Och|blom- stren de|dof- ta på|äng- en|grön, * La *|
 !fermata!A,6- | A,2 z2!p! D,2 | D,3 D, D,2 | D,2!<(! D,2 F,2!<)! | A,4!>(! A,2!>)! | %10
w: la!|* Och|so- len den|ly- ser så|klar och|
 B,2- B, z!pp! (=G,E,) | !fermata![A,,E,]6- | [A,,E,]2 z2 z2 |!p! !>!D,6 | !>!D,6 | !>!D,6 | %16
w: skön. * La *|la!||La,|la,|la!|
 D,>D, D,>D, D,2 |!mf! !>!D,6 | !>!D,6 | !>!D,6 |!>(! D,>D,!>)! D,>D, D,2 | %21
w: Äng- en är så skön!|La,|la,|la!|So- len ly- ser skön!|
!ff! !>!!fermata!_G,,4- G,, z |!p! A,,4 A,,2 | !fermata!D,6 |] %24
w: La! *|Ly- ser|skön!|

